X:1
T:The River of Thy Grace
T:Arthur W. McKee
T:The River of Thy Grace
T:Public Domain
T:Public Domain
T:Public Domain
C:Arthur W. McKee
Z:Public Domain
%%score 1 ( 2 3 )
L:1/8
M:4/4
K:Ab
V:1 treble 
V:2 bass 
V:3 bass 
V:1
 [CE]2 | [Ec]>[CE] [=B,=D]>[CE] [_DF]2 [Fd]2 | [Ec]>[=D=B] [Ec]4 [Ec]2 | %3
w: 1.~The|ri- ver of Thy grace is|flow- ing free, We|
w: 2.~The|breez- es of Thy love are|blow- ing free, They|
w: 3.~Thy|Spir- it calls to all, “Come|home to- day”; Come|
 [Ec]>[DB] [C=A]>[DB] [Ed]2 [DB]2 | [CA]>[DF] [CE]4 [A,C]>[B,D] | %5
w: launch up- on its depths to|sail to Thee; In the|
w: tell Thy love to all hu-|man- i- ty; They are|
w: back and find the Sav- ior|while you may; Find that|
 [CE]>[=B,=D] [CE]>[B,D] [CE]2 [Ec]2 | [Ae]2 [Ad]2 [FA]2 [AB]>[A=B] | %7
w: o- cean of Thy love we|soon shall be, We are|
w: sing- ing of the blood of|Cal- va- ry, Mak- ing|
w: Je- sus is the life, the|truth, the way, Lead- ing,|
 [Ac]>[EB] [EA]>[DF] [DE]2 [DB]2 | [CA]6 ||"^Refrain" [EA]>[EA] | %10
w: sail- ing to e- ter- ni-|ty||
w: white through all e- ter- ni-|ty.|Earth- ly|
w: guid- ing to e- ter- ni-|ty.||
 [EG]>[Ed] [Ed]>[Ed] [Ed]>[DF] [DG]>[DF] | [CE]2 [Ec]4 [Ec]>[Ec] | %12
w: ||
w: joys can- not com- pare with all the|glo- ry, When our|
w: ||
 [=Dc]>[DB] [DA]>[DF] [DB]2 [Dc]2 | [EB]6 [DE]>[DE][CA]>[CG][CA]>[EB] [Ec]2 [Ae]2 | %14
w: ||
w: long- ing eyes shall see Thy|face; We shall have Thy fel- low- ship for-|
w: ||
 [Af]4 [Fd]2 [FA]>[FB] | [Ec]>[CE] [=B,=D]>[CE] [_DF]2 [EG]2 | [EA]6 |] %17
w: |||
w: ev- er, In the|splen- dor of the throne of|grace.|
w: |||
V:2
 [A,,A,]2 | [A,,A,]>[E,A,] [E,A,]>[E,A,] [D,A,]2 [D,A,]2 | [A,,A,]>[A,,A,] [A,,A,]4 [A,,A,]2 | %3
 [E,A,]>[E,G,] [E,^F,]>[E,G,] [E,G,]2 [E,G,]2 | A,>A, A,4 [A,,E,]>[A,,E,] | %5
 [A,,A,]>[A,,A,] [A,,A,]>[A,,A,] [A,,A,]2 A,2 | [_G,C]2 [F,D]2 [D,D]2 [F,D]>[_F,=D] | %7
 [E,E]>[E,D] [E,C]>[E,A,] [E,G,]2 [E,G,]2 | [A,,A,]6 || [A,,C]>[A,,C] | %10
 [E,B,]>[E,G,] [E,G,]>[E,G,] [E,G,]>[E,G,] [E,B,]>[E,G,] | [A,,A,]2 [A,,A,]4 [A,,A,]>[A,,A,] | %12
 [B,,A,]>[B,,A,] [B,,F,]>[B,,F,] [B,,F,]2 [B,,A,]2 | %13
 [E,G,]6 [E,G,]>[E,G,][A,,A,]>[A,,A,][A,,A,]>[E,G,] A,2 [A,C]2 | [D,D]4 [D,A,]2 [D,D]>[D,D] | %15
 [E,A,]>[E,A,] [F,A,]>[E,A,] (G,B,) [E,C]2 | [A,,A,C]6 |] %17
V:3
 x2 | x8 | x8 | x8 | A,>A, A,4 x2 | x6 A,2 | x8 | x8 | x6 || x2 | x8 | x8 | x8 | x12 A,2 x2 | x8 | %15
 x4 E,2 x2 | x6 |] %17

